!!!COM: Johanna Kinkel
!!!CNT: Deutsch
!!!TXO: Deutsch
!!!OTL: Nachtlied
!!!LYR: Geibel
!!!OPR: Sechs Lieder
!!!OPS: Op. 7
!!!ONM: No. 1
!!!ENC: Ben Fuhrman
!!!YOR: Johanna Kinkel: Lieder, volume 1 Poetry by Geibel and Goethe
!!!YOR: Bryn Mawr, Fildegard Publishing CO, 2000
!!!ODT: 1837
!!NB: Only vocal melody encoded.
!!NB: First instance of melodic material only encoded.
!!created: 2/19/10 4:37PM
!!proofed and posted: 2/19/10 4:37PM
**kern	**silbe
*clef G2	*
*k[b-]	*
*M9/8	*
*MM[Andantino]	*
=6	=6
4.r	.
4r	.
8r	.
{4.c	{Der
=7	=7
[4.f	Mond
4f]	|
8a	kommt
4b-	still
8dd	ge-
=8	=8
4.dd	-gan-
4cc}	-gen}
8r	.
4r	.
{8cc	{mit
=9	=9
4cc	sei-
8cc	-nem
(4cc	gold'
8a)	|
(4f	-nen
8g)	|
=10	=10
[4.a	Schein,
8a]}	|}
8r	.
8r	.
4r	.
{8a	{da
=11	=11
4a	schla2ft
8a	in
(4.ff	hol-
4ee)	|
8dd	-dem
=12	=12
4.cc	Pran-
4bn}	-gen}
8r	.
4r	.
{8dd	{die
=13	=13
[4.ee	mu2-
8ee]	|
8dd	|
8cc	-de
8g	Er-
8e	|
8d	-de
=14	=14
4.c}	ein.}
4r	.
8r	.
4r	.
{8c	{Im
=15	=15
[4.b	Traum
4b]	|
8b	die
4cc	Wip-
8b	-fel
=16	=16
4.a	we-
4f}	-ben,}
8r	.
4r	.
{8a	{die
=17	=17
[4.cc	Quel
4cc]	|
8cc	-len
4cc	rau-
8b	-schen
=18	=18
[4.a	sacht,
8a]}	|}
8r	.
8r	.
4r	.
8r	.
=19	=19
{[4.a	{sin-
8a]	|
8a	-gen-
8a	-de
8a	En-
8g	-gel
8e	durch-
=20	=20
4.f	-schwe-
4d}	-ben}
8r	.
4r	.
{8d	{die
=21	=21
[4.c	blau-
4c]	|
8f	-e
4a	Ster-
8g	-nen-
=22	=22
4.f}	-nacht.}
4.r	.
4.r	.
==	==
*-	*-
